assets/images/tag.svg

<svg width="20" height="20" viewBox="0 0 20 20" fill="none" xmlns="http://www.w3.org/2000/svg">
<path fill-rule="evenodd" clip-rule="evenodd" d="M10.6918 1.69127L18.5859 9.58539C19.3669 10.3664 19.3669 11.6328 18.5859 12.4138L12.4143 18.5854C11.6333 19.3664 10.3669 19.3664 9.58588 18.5854L1.69176 10.6913C1.25535 10.2549 1.04487 9.6414 1.12142 9.02899L1.80715 3.54315C1.92063 2.63526 2.63575 1.92015 3.54363 1.80666L9.02948 1.12093C9.64189 1.04438 10.2553 1.25486 10.6918 1.69127ZM6.50019 7.99971C7.32862 7.99971 8.00019 7.32813 8.00019 6.49971C8.00019 5.67128 7.32862 4.99971 6.50019 4.99971C5.67177 4.99971 5.00019 5.67128 5.00019 6.49971C5.00019 7.32813 5.67177 7.99971 6.50019 7.99971Z" />
</svg>

<?xml version="1.0" encoding="utf-8"?>
<!-- Generator: Adobe Illustrator 28.1.0, SVG Export Plug-In . SVG Version: 6.00 Build 0)  -->
<svg version="1.1" id="Layer_1" xmlns="http://www.w3.org/2000/svg" xmlns:xlink="http://www.w3.org/1999/xlink" x="0px" y="0px"
	 viewBox="0 0 20 20" style="enable-background:new 0 0 20 20;" xml:space="preserve">
<style type="text/css">
	.st0{fill-rule:evenodd;clip-rule:evenodd;}
</style>
<path class="st0" d="M10.692,1.691l7.894,7.894c0.781,0.781,0.781,2.047,0,2.828l-6.172,6.172c-0.781,0.781-2.047,0.781-2.828,0
	l-7.894-7.894c-0.436-0.436-0.647-1.05-0.57-1.662l0.686-5.486C1.921,2.635,2.636,1.92,3.544,1.807l5.486-0.686
	C9.642,1.044,10.255,1.255,10.692,1.691z M6.5,8C7.329,8,8,7.328,8,6.5C8,5.671,7.329,5,6.5,5C5.672,5,5,5.671,5,6.5
	C5,7.328,5.672,8,6.5,8z"/>
</svg>
